X: 1
T: The Quiet Town
R: reel
M: 4/4
L: 1/8
K: Dmaj
||FEDE A4|BAFE D2DF|E2BE DEBD|E2ef edB2|!
dcBA Bcde|fedf e2dB|A2AB BFEF|BFEF D4||!
||DEFG A4|BAFA B4|dcBA B4|!
dcBA BAFD|E2BE DEBD|E2ef edB2|!
dcBA Bcde|fedf e2dB|A2AB BFEF|BFEF D4||
